svgs/regular/dolly.svg

<svg xmlns="http://www.w3.org/2000/svg" viewBox="0 0 576 512"><!--! Font Awesome Pro 6.0.0-alpha3 by @fontawesome - https://fontawesome.com License - https://fontawesome.com/license (Commercial License) --><path d="M574.6 304c-4.391-12.5-18.11-19.06-30.59-14.69l-16.29 5.725l-70.73-188.6c-4.969-13.28-14.81-23.83-27.72-29.69c-12.89-5.875-27.34-6.391-40.58-1.375l-194.8 73.06L150.8 16.55C147.6 6.672 138.4 0 127.1 0H24C10.75 0 0 10.75 0 24S10.75 48 24 48h86.59l93.8 287.3C177.8 352.3 160 382 160 416c0 53.02 42.98 96 96 96s96-42.98 96-96c0-2.744-.584-5.326-.8105-8.012l208.8-73.35C572.5 330.2 579 316.5 574.6 304zM256 464c-26.47 0-48-21.53-48-48s21.53-48 48-48s48 21.53 48 48S282.5 464 256 464zM335.7 362.6C318.5 336.9 289.2 320 256 320c-2.023 0-3.917 .4727-5.909 .5957L208.8 194.1l89.75-33.65l26.98 71.96C329.1 242.1 338.3 248 348 248c2.797 0 5.656-.4844 8.422-1.531c12.42-4.656 18.7-18.48 14.05-30.89L343.5 143.6l62.1-23.28c2.203-.7969 5.641 .7187 6.484 2.953l70.4 187.7L335.7 362.6z"/></svg>

<svg xmlns="http://www.w3.org/2000/svg" viewBox="0 0 576 512"><!-- Font Awesome Pro 6.0.0-alpha2 by @fontawesome - https://fontawesome.com License - https://fontawesome.com/license (Commercial License) --><path d="M574.637 304.043C570.246 291.543 556.527 284.98 544.043 289.355L527.75 295.08L457.016 106.453C452.047 93.172 442.203 82.625 429.297 76.766C416.406 70.891 401.953 70.375 388.719 75.391L193.883 148.449L150.812 16.547C147.594 6.672 138.391 0 128 0H24C10.75 0 0 10.75 0 24S10.75 48 24 48H110.594L204.395 335.271C177.76 352.332 160 382.021 160 416C160 469.02 202.98 512 256 512S352 469.02 352 416C352 413.256 351.418 410.674 351.191 407.988L559.949 334.637C572.465 330.246 579.027 316.543 574.637 304.043ZM256 464C229.533 464 208 442.467 208 416S229.533 368 256 368S304 389.533 304 416S282.467 464 256 464ZM335.727 362.551C318.494 336.896 289.229 320 256 320C253.977 320 252.086 320.473 250.094 320.596L208.793 194.111L298.547 160.459L325.531 232.422C329.141 242.062 338.281 248 348 248C350.797 248 353.656 247.516 356.422 246.469C368.844 241.812 375.125 227.984 370.469 215.578L343.482 143.611L405.578 120.328C407.781 119.531 411.219 121.047 412.062 123.281L482.463 310.992L335.727 362.551Z"/></svg>
